!!!COM: Anon.
!!!OTL: La Vibora
!! Maria Cadilla de Martinez,
!! Juegos Y Canciones Infantiles de Puerto Rico
!! Talleres Graficos, Cas Baldrich, Brau 93, San Juan, P.R.
!! 1940.  Derechos reservados de la Autora
!! page 169
!! Allegro
**kern
*clefG2
*k[]
*M2/4
{16g
16g
=
16cc
16g
8g
16cc
16g
8g
=
8cc
8dd
4ee},
=
{8cc
8dd
8ee
=
8dd
8dd
4cc},
=
{8g
8g
8cc
8g
=
8cc
8ee
8ee
8ee},
=
{8cc
8dd
8ee
8ee
=
8dd
8dd
4cc},
=
{8g
8g
8cc
8g
=
8cc
8dd
4ee},
=
{8cc
8dd
8dd
8ee
=
8dd
8dd
4cc},
=
{8cc
16cc
16cc
8cc
8dd
=
8cc
8b
8cc
8cc},
=
{8a
8b
8cc
8dd
=
8cc
8b
8cc},
8r
=
4cc,
8r
==
*-
